X: 41660
T: Upper Valley
R: waltz
M: 3/4
K: Dminor
|d2 Ac GF|d6|c2 Ac GF|c6|
B2 cB AG|F2 G2 A2|A,2 D4|D4 z2|
d2 Ac GF|d6|c2 Ac GF|c6|
B2 cB AG|F2 G2 A2|A,2 D4|D4 z2|
A2 B4|B2 GA BA|G2 A4|A2 DE FA|
d2 ef ga|b6|a2 gf ed|f6|
A2 B4|B2 GA BA|G2 A4|A2 de fg|
a2 d4|g2 c4|A2 d4|d4 z2|

